X:37
T:Follow Me Up to Carlow
M:2/4
K:EDor
L:1/16
E3 E E3 D|B,3 C D4|E3 E G3 A|B3 A G3 F|
E3 E E3 D|B,3 C D3 F|E3 E F3 D|E6 z2 :|
|: B3 c d4|B3 c d4|F3 F F3 D|E3 E E4 :||
B3 c d3 c|B3 c d4|F3 F F3 E|D3 E F4|
B3 c d3 B|(3e2d2c2 d3 z|(3F2F2F2 F3 D|E4 E4 |>|
